X:561
T: DIE FREUDE WILL UNS HEUT BEGRUESSEN
N: F1114
O: Europa, Mitteleuropa, Deutschland
R: Gesellschafts - Lied
M: 3/4
L: 1/8
K: F
ccc | c3BBB | B2A
AAA | A3GDE | F2z
FAc | f3ed^c | e2d
GAB | d3cGA | F2z

@@@ Tune index: 5992
